T: Timmy's Place
M: 4/4
L: 1/8
K: Emin
DEAB cAEF | GAED EAAB | cdeg deBG | DEAB cAEF |
GAED cA (3Bcd | GB g2 ed (3BAG | DEAB c2EF | GAED EAAB |
cdeg deBG | DEAB cAEF | GAED cA (3Bcd | GB g2 ed (3efg |
a2 eg ae g2 | degb a2 eg | aege ed (3efg | a2 eg ae g2 |
dega e2 ed | Bd g2 ed (3efg | a2 eg ae g2 | degb a2 eg |
abge ed (3efg | a2 eg ae g2 | degb a2 ag | edge ed (3BAG |]
